icons/align-vertically.svg

<svg xmlns="http://www.w3.org/2000/svg" viewBox="0 0 24 24">
    <g>
        <path fill="none" d="M0 0h24v24H0z"/>
        <path d="M3 11h18v2H3v-2zm15 7v3h-2v-3h-3l4-4 4 4h-3zM8 18v3H6v-3H3l4-4 4 4H8zM18 6h3l-4 4-4-4h3V3h2v3zM8 6h3l-4 4-4-4h3V3h2v3z"/>
    </g>
</svg>

<svg viewBox="0 0 24 24" fill="currentColor" xmlns="http://www.w3.org/2000/svg">
    <path d="M3 11H21V13H3V11ZM18 18V21H16V18H13L17 14L21 18H18ZM8 18V21H6V18H3L7 14L11 18H8ZM18 6H21L17 10L13 6H16V3H18V6ZM8 6H11L7 10L3 6H6V3H8V6Z"/>
</svg>
